static/img/kroki/febadcb8479a0bdbf9159bbfa710b740.svg

<?xml version="1.0" encoding="us-ascii" standalone="no"?><svg xmlns="http://www.w3.org/2000/svg" xmlns:xlink="http://www.w3.org/1999/xlink" contentStyleType="text/css" height="352px" preserveAspectRatio="none" style="width:507px;height:352px;" version="1.1" viewBox="0 0 507 352" width="507px" zoomAndPan="magnify"><defs/><g><!--class azure_cosmos_db_account--><g id="elem_azure_cosmos_db_account"><rect codeLine="23" fill="#3D176E" height="39.7891" id="azure_cosmos_db_account" rx="2.5" ry="2.5" style="stroke:#000D19;stroke-width:0.5;" width="261" x="99.44" y="7"/><ellipse cx="114.44" cy="26.8945" fill="#ADD1B2" rx="11" ry="11" style="stroke:#181818;stroke-width:1.0;"/><path d="M117.4088,32.5352 Q116.8306,32.832 116.19,32.9727 Q115.5494,33.1289 114.8463,33.1289 Q112.3463,33.1289 111.0181,31.4883 Q109.7056,29.832 109.7056,26.707 Q109.7056,23.582 111.0181,21.9258 Q112.3463,20.2695 114.8463,20.2695 Q115.5494,20.2695 116.19,20.4258 Q116.8463,20.582 117.4088,20.8789 L117.4088,23.5977 Q116.7838,23.0195 116.19,22.7539 Q115.5963,22.4727 114.9713,22.4727 Q113.6275,22.4727 112.94,23.5508 Q112.2525,24.6133 112.2525,26.707 Q112.2525,28.8008 112.94,29.8789 Q113.6275,30.9414 114.9713,30.9414 Q115.5963,30.9414 116.19,30.6758 Q116.7838,30.3945 117.4088,29.8164 L117.4088,32.5352 Z " fill="#000000"/><text fill="#D9B8FF" font-family="Helvetica" font-size="17" lengthAdjust="spacing" textLength="219" x="133.44" y="32.7798">azure_cosmos_db_account</text></g><!--class azure_cosmos_db_sql_role_assignment--><g id="elem_azure_cosmos_db_sql_role_assignment"><rect codeLine="26" fill="#3D176E" height="39.7891" id="azure_cosmos_db_sql_role_assignment" rx="2.5" ry="2.5" style="stroke:#000D19;stroke-width:0.5;" width="366" x="37.94" y="206.58"/><ellipse cx="52.94" cy="226.4745" fill="#ADD1B2" rx="11" ry="11" style="stroke:#181818;stroke-width:1.0;"/><path d="M55.9088,232.1152 Q55.3306,232.412 54.69,232.5527 Q54.0494,232.7089 53.3463,232.7089 Q50.8463,232.7089 49.5181,231.0683 Q48.2056,229.412 48.2056,226.287 Q48.2056,223.162 49.5181,221.5058 Q50.8463,219.8495 53.3463,219.8495 Q54.0494,219.8495 54.69,220.0058 Q55.3463,220.162 55.9088,220.4589 L55.9088,223.1777 Q55.2838,222.5995 54.69,222.3339 Q54.0963,222.0527 53.4713,222.0527 Q52.1275,222.0527 51.44,223.1308 Q50.7525,224.1933 50.7525,226.287 Q50.7525,228.3808 51.44,229.4589 Q52.1275,230.5214 53.4713,230.5214 Q54.0963,230.5214 54.69,230.2558 Q55.2838,229.9745 55.9088,229.3964 L55.9088,232.1152 Z " fill="#000000"/><text fill="#D9B8FF" font-family="Helvetica" font-size="17" lengthAdjust="spacing" textLength="324" x="71.94" y="232.3598">azure_cosmos_db_sql_role_assignment</text></g><!--class azure_cosmos_db_sql_role_definition--><g id="elem_azure_cosmos_db_sql_role_definition"><rect codeLine="29" fill="#3D176E" height="39.7891" id="azure_cosmos_db_sql_role_definition" rx="2.5" ry="2.5" style="stroke:#000D19;stroke-width:0.5;" width="349" x="55.44" y="106.79"/><ellipse cx="70.44" cy="126.6845" fill="#ADD1B2" rx="11" ry="11" style="stroke:#181818;stroke-width:1.0;"/><path d="M73.4088,132.3252 Q72.8306,132.622 72.19,132.7627 Q71.5494,132.9189 70.8463,132.9189 Q68.3463,132.9189 67.0181,131.2783 Q65.7056,129.622 65.7056,126.497 Q65.7056,123.372 67.0181,121.7158 Q68.3463,120.0595 70.8463,120.0595 Q71.5494,120.0595 72.19,120.2158 Q72.8463,120.372 73.4088,120.6689 L73.4088,123.3877 Q72.7838,122.8095 72.19,122.5439 Q71.5963,122.2627 70.9713,122.2627 Q69.6275,122.2627 68.94,123.3408 Q68.2525,124.4033 68.2525,126.497 Q68.2525,128.5908 68.94,129.6689 Q69.6275,130.7314 70.9713,130.7314 Q71.5963,130.7314 72.19,130.4658 Q72.7838,130.1845 73.4088,129.6064 L73.4088,132.3252 Z " fill="#000000"/><text fill="#D9B8FF" font-family="Helvetica" font-size="17" lengthAdjust="spacing" textLength="307" x="89.44" y="132.5698">azure_cosmos_db_sql_role_definition</text></g><!--class microsoft_graph_service_principal--><g id="elem_microsoft_graph_service_principal"><rect codeLine="32" fill="#3D176E" height="39.7891" id="microsoft_graph_service_principal" rx="2.5" ry="2.5" style="stroke:#000D19;stroke-width:0.5;" width="324" x="176.94" y="306.37"/><ellipse cx="191.94" cy="326.2645" fill="#ADD1B2" rx="11" ry="11" style="stroke:#181818;stroke-width:1.0;"/><path d="M194.9088,331.9052 Q194.3306,332.202 193.69,332.3427 Q193.0494,332.4989 192.3463,332.4989 Q189.8463,332.4989 188.5181,330.8583 Q187.2056,329.202 187.2056,326.077 Q187.2056,322.952 188.5181,321.2958 Q189.8463,319.6395 192.3463,319.6395 Q193.0494,319.6395 193.69,319.7958 Q194.3463,319.952 194.9088,320.2489 L194.9088,322.9677 Q194.2838,322.3895 193.69,322.1239 Q193.0963,321.8427 192.4713,321.8427 Q191.1275,321.8427 190.44,322.9208 Q189.7525,323.9833 189.7525,326.077 Q189.7525,328.1708 190.44,329.2489 Q191.1275,330.3114 192.4713,330.3114 Q193.0963,330.3114 193.69,330.0458 Q194.2838,329.7645 194.9088,329.1864 L194.9088,331.9052 Z " fill="#000000"/><text fill="#D9B8FF" font-family="Helvetica" font-size="17" lengthAdjust="spacing" textLength="282" x="210.94" y="332.1498">microsoft_graph_service_principal</text></g><!--link azure_cosmos_db_account to azure_cosmos_db_sql_role_assignment--><g id="link_azure_cosmos_db_account_azure_cosmos_db_sql_role_assignment"><path codeLine="35" d="M123.78,47.26 C90.68,58.83 57.7,77.31 37.94,106.79 C6,154.45 70.2063,185.5251 132.6463,204.3851 " fill="none" id="azure_cosmos_db_account-to-azure_cosmos_db_sql_role_assignment" style="stroke:#1A83AF;stroke-width:2.0;"/><polygon fill="#1A83AF" points="138.39,206.12,130.931,199.6885,133.6036,204.6743,128.6178,207.3468,138.39,206.12" style="stroke:#1A83AF;stroke-width:2.0;"/></g><!--link azure_cosmos_db_account to azure_cosmos_db_sql_role_definition--><g id="link_azure_cosmos_db_account_azure_cosmos_db_sql_role_definition"><path codeLine="36" d="M229.94,47.22 C229.94,64.36 229.94,83.28 229.94,100.41 " fill="none" id="azure_cosmos_db_account-to-azure_cosmos_db_sql_role_definition" style="stroke:#1A83AF;stroke-width:2.0;"/><polygon fill="#1A83AF" points="229.94,106.41,233.94,97.41,229.94,101.41,225.94,97.41,229.94,106.41" style="stroke:#1A83AF;stroke-width:2.0;"/></g><!--link azure_cosmos_db_account to microsoft_graph_service_principal--><g id="link_azure_cosmos_db_account_microsoft_graph_service_principal"><path codeLine="37" d="M336.1,47.26 C369.19,58.83 402.17,77.31 421.94,106.79 C432.1,121.95 444.91,190.82 420.94,246.37 C410.21,271.22 392.2919,288.486 373.4819,302.496 " fill="none" id="azure_cosmos_db_account-to-microsoft_graph_service_principal" style="stroke:#1A83AF;stroke-width:2.0;"/><polygon fill="#1A83AF" points="368.67,306.08,378.2773,303.9119,372.68,303.0933,373.4986,297.496,368.67,306.08" style="stroke:#1A83AF;stroke-width:2.0;"/></g><!--link azure_cosmos_db_sql_role_assignment to microsoft_graph_service_principal--><g id="link_azure_cosmos_db_sql_role_assignment_microsoft_graph_service_principal"><path codeLine="38" d="M244.25,246.8 C264.94,263.94 290.3813,285.0201 311.0513,302.1601 " fill="none" id="azure_cosmos_db_sql_role_assignment-to-microsoft_graph_service_principal" style="stroke:#1A83AF;stroke-width:2.0;"/><polygon fill="#1A83AF" points="315.67,305.99,311.2953,297.1661,311.8211,302.7984,306.1888,303.3243,315.67,305.99" style="stroke:#1A83AF;stroke-width:2.0;"/></g><!--link azure_cosmos_db_sql_role_definition to azure_cosmos_db_sql_role_assignment--><g id="link_azure_cosmos_db_sql_role_definition_azure_cosmos_db_sql_role_assignment"><path codeLine="39" d="M228.16,147.01 C226.58,164.15 224.8408,183.0853 223.2608,200.2253 " fill="none" id="azure_cosmos_db_sql_role_definition-to-azure_cosmos_db_sql_role_assignment" style="stroke:#1A83AF;stroke-width:2.0;"/><polygon fill="#1A83AF" points="222.71,206.2,227.5192,197.6052,223.169,201.2211,219.553,196.8708,222.71,206.2" style="stroke:#1A83AF;stroke-width:2.0;"/></g><!--SRC=[hP5VJy8m5CNVzocQy4p290gycCmbH5-84T-CQRhsTcjOstbR863yxeBufsuEPlIrvvTpppajb002kl8Rea5dW2vo2sKgXaoJ1D6kKrjQ93qfcHoEwkBK6dyIc34Dv1hA5NZ5MPsuBnHV672Ed0NI5UEB7EtIY8EzHsRSJWBZ0oejcNE9zwYofOSWZ9XaOodhPDsqDnJnw08Qc4K1-8uC1WCHJ-h8oLD7UtyISxK54eUZpQo7Hip6YJVgQCez4OHi5FtGMpFUCY6KoSbvy7Pto8G6yDlxl632hlUqPAKBppWF2DPlAaWRhM0o5dBq8tpJ1aTyFnrXsoK2vTPfwwZ8AEDyntho74KlBOXxAYdQ4kXELBdHq14N89LHNbaJubfnjCvAJtDaLK4Tu4fne1KgmrN5oWFSbhF_q8kJyJ2PFlOlkoJzez5NXsv69zj5NTRzBylW1twzsoi0]--></g></svg>

<svg xmlns="http://www.w3.org/2000/svg" width="507" height="352" viewBox="0 0 507 352"><rect width="261" height="39.789" x="99.44" y="7" fill="#3D176E" rx="2.5" ry="2.5" style="stroke:#000d19;stroke-width:.5"/><circle cx="114.44" cy="26.895" r="11" fill="#ADD1B2" style="stroke:#181818;stroke-width:1"/><path d="M117.409 32.535q-.578.297-1.219.438-.64.156-1.344.156-2.5 0-3.828-1.64-1.312-1.657-1.312-4.782t1.312-4.781q1.328-1.656 3.828-1.656.703 0 1.344.156.656.156 1.219.453v2.719q-.625-.578-1.219-.844-.594-.281-1.219-.281-1.344 0-2.031 1.078-.687 1.062-.687 3.156t.687 3.172q.688 1.062 2.031 1.062.625 0 1.219-.265.594-.281 1.219-.86z"/><text x="133.44" y="32.78" fill="#D9B8FF" font-family="Helvetica" font-size="17" textLength="219">azure_cosmos_db_account</text><rect width="366" height="39.789" x="37.94" y="206.58" fill="#3D176E" rx="2.5" ry="2.5" style="stroke:#000d19;stroke-width:.5"/><circle cx="52.94" cy="226.475" r="11" fill="#ADD1B2" style="stroke:#181818;stroke-width:1"/><path d="M55.909 232.115q-.578.297-1.219.438-.64.156-1.344.156-2.5 0-3.828-1.64-1.312-1.657-1.312-4.782t1.312-4.781q1.328-1.656 3.828-1.656.703 0 1.344.156.656.156 1.219.453v2.719q-.625-.578-1.219-.844-.594-.281-1.219-.281-1.343 0-2.031 1.078-.687 1.062-.687 3.156t.687 3.172q.688 1.062 2.031 1.062.625 0 1.219-.265.594-.281 1.219-.86z"/><text x="71.94" y="232.36" fill="#D9B8FF" font-family="Helvetica" font-size="17" textLength="324">azure_cosmos_db_sql_role_assignment</text><rect width="349" height="39.789" x="55.44" y="106.79" fill="#3D176E" rx="2.5" ry="2.5" style="stroke:#000d19;stroke-width:.5"/><circle cx="70.44" cy="126.684" r="11" fill="#ADD1B2" style="stroke:#181818;stroke-width:1"/><path d="M73.409 132.325q-.578.297-1.219.438-.64.156-1.344.156-2.5 0-3.828-1.64-1.312-1.657-1.312-4.782t1.312-4.781q1.328-1.656 3.828-1.656.703 0 1.344.156.656.156 1.219.453v2.719q-.625-.579-1.219-.844-.594-.281-1.219-.281-1.344 0-2.031 1.078-.687 1.062-.687 3.156t.687 3.172q.688 1.062 2.031 1.062.625 0 1.219-.265.594-.281 1.219-.86z"/><text x="89.44" y="132.57" fill="#D9B8FF" font-family="Helvetica" font-size="17" textLength="307">azure_cosmos_db_sql_role_definition</text><rect width="324" height="39.789" x="176.94" y="306.37" fill="#3D176E" rx="2.5" ry="2.5" style="stroke:#000d19;stroke-width:.5"/><circle cx="191.94" cy="326.264" r="11" fill="#ADD1B2" style="stroke:#181818;stroke-width:1"/><path d="M194.909 331.905q-.578.297-1.219.438-.64.156-1.344.156-2.5 0-3.828-1.64-1.312-1.657-1.312-4.782t1.312-4.781q1.328-1.656 3.828-1.656.703 0 1.344.156.656.156 1.219.453v2.719q-.625-.579-1.219-.844-.594-.281-1.219-.281-1.344 0-2.031 1.078-.687 1.062-.687 3.156t.687 3.172q.688 1.062 2.031 1.062.625 0 1.219-.265.594-.281 1.219-.86z"/><text x="210.94" y="332.15" fill="#D9B8FF" font-family="Helvetica" font-size="17" textLength="282">microsoft_graph_service_principal</text><path fill="none" d="M123.78 47.26c-33.1 11.57-66.08 30.05-85.84 59.53-31.94 47.66 32.266 78.735 94.706 97.595" style="stroke:#1a83af;stroke-width:2"/><path fill="#1A83AF" d="m138.39 206.12-7.459-6.431 2.673 4.985-4.986 2.673z" style="stroke:#1a83af;stroke-width:2"/><path fill="none" d="M229.94 47.22v53.19" style="stroke:#1a83af;stroke-width:2"/><path fill="#1A83AF" d="m229.94 106.41 4-9-4 4-4-4z" style="stroke:#1a83af;stroke-width:2"/><path fill="none" d="M336.1 47.26c33.09 11.57 66.07 30.05 85.84 59.53 10.16 15.16 22.97 84.03-1 139.58-10.73 24.85-28.648 42.116-47.458 56.126" style="stroke:#1a83af;stroke-width:2"/><path fill="#1A83AF" d="m368.67 306.08 9.607-2.168-5.597-.819.819-5.597z" style="stroke:#1a83af;stroke-width:2"/><path fill="none" d="M244.25 246.8c20.69 17.14 46.131 38.22 66.801 55.36" style="stroke:#1a83af;stroke-width:2"/><path fill="#1A83AF" d="m315.67 305.99-4.375-8.824.526 5.632-5.632.526z" style="stroke:#1a83af;stroke-width:2"/><path fill="none" d="M228.16 147.01c-1.58 17.14-3.32 36.075-4.9 53.215" style="stroke:#1a83af;stroke-width:2"/><path fill="#1A83AF" d="m222.71 206.2 4.81-8.595-4.351 3.616-3.616-4.35z" style="stroke:#1a83af;stroke-width:2"/></svg>
